X: 32696
T: Polka 2007
R: polka
M: 2/4
K: Aminor
B2|:A>c ef|ec Ac|G>B de|dB B2|
A>c ef|ea a>g|e/d/c d/c/B|1 A2AE:|2 A2ef||
|:g>a g^f|gc' c'e|f>g fe|f/e/d BG|
g>a g^f|gc' c'g|g/f/e f/e/d|1 c2ef:|2 c2||

